img/telega.svg

<svg width="34" height="27" viewBox="0 0 34 27" fill="none" xmlns="http://www.w3.org/2000/svg">
<path fill-rule="evenodd" clip-rule="evenodd" d="M33.7065 2.53874C33.6236 3.63887 32.9398 7.48453 32.2663 11.6363L30.1422 23.9578C30.1422 23.9578 29.9764 25.7658 28.5258 26.0719C27.0856 26.3876 24.7024 24.9718 24.2776 24.6561C23.9357 24.417 17.9053 20.887 15.6984 19.1651C15.1078 18.6963 14.4239 17.7492 15.7812 16.6587C18.8379 14.0662 22.4955 10.8519 24.7024 8.81426C25.7179 7.87675 26.7436 5.67649 22.4955 8.3455L10.5176 15.7977C10.5176 15.7977 9.1603 16.5821 6.61139 15.8742C4.06248 15.1663 1.08875 14.2288 1.08875 14.2288C1.08875 14.2288 -0.95245 13.0522 2.52899 11.799L22.3297 4.27024C24.288 3.4858 30.9089 0.979418 30.9089 0.979418C30.9089 0.979418 33.9656 -0.120708 33.7065 2.53874Z" fill="#B1B1B1"/>
</svg>

<svg xmlns="http://www.w3.org/2000/svg" width="34" height="27" fill="none"><path fill="#B1B1B1" fill-rule="evenodd" d="M33.706 2.539c-.082 1.1-.766 4.946-1.44 9.097l-2.124 12.322s-.166 1.808-1.616 2.114c-1.44.316-3.824-1.1-4.248-1.416-.342-.239-6.373-3.769-8.58-5.49-.59-.47-1.274-1.417.083-2.507 3.057-2.593 6.714-5.807 8.921-7.845 1.016-.937 2.042-3.138-2.207-.469l-11.977 7.453s-1.358.784-3.907.076C4.062 15.166 1.09 14.23 1.09 14.23s-2.041-1.177 1.44-2.43l19.8-7.529c1.959-.784 8.58-3.29 8.58-3.29s3.057-1.1 2.797 1.559Z" clip-rule="evenodd"/></svg>
